X:1
T:Liederkreis
T:Waldesgespräch
T:N°3 Waldesgespräch
T:Robert Schumann
T:Liederkreis, Op.39
T:Joseph von Eichendorff
T:Creative Commons copyright waiver (CC0 1.0 Universal) 
T:Creative Commons copyright waiver (CC0 1.0 Universal) 
T:Creative Commons copyright waiver (CC0 1.0 Universal) 
T:Creative Commons copyright waiver (CC0 1.0 Universal) 
C:Robert Schumann
Z:Joseph von Eichendorff
Z:Creative Commons copyright waiver (CC0 1.0 Universal)
Z:
%%score ( 1 2 ) { ( 3 6 ) | ( 4 5 7 ) }
L:1/8
Q:1/4=136
M:3/4
K:E
V:1 treble nm="Voice"
V:2 treble 
V:3 treble nm="Piano"
V:6 treble 
V:4 bass 
V:5 bass 
V:7 bass 
V:1
"^Ziemlich rasch." z6 | z6 | z6 | z6 | z2 z!mf! E F3/2 G/ | (G2 F2) z2 | z2 z G E3/2 G/ | %7
w: ||||Es ist schon|spät, *|es ist schon|
 (G2 F2) z F | G4 G2 |!<(! ^A3 A ^B ^^c!<)! |!f! d2 z ^A (3(^BA) B | c2 z G{=B} (3(^AG) A | %12
w: kalt, * was|reit'st du|ein- sam durch den|Wald? Der Wald * ist|lang, du bist * al-|
 B2 z2!f! B2 |!fff! !>!e3/2!f! B/[Q:1/4=120] G G (F/E/) z/ F/ ||[K:C] E6 | z6 |!p! G4 G3/2 G/ | %17
w: lein, du|schö- ne Braut, ich führ' * dich|heim!||Gross ist der|
 A4 A2 | (B3 PBA) B | c4 z G | G2 z2 G2 | A4 A2 | (B3 PBA) B | c4 z2 |!f! e2 e3 e | ^d2 B4 | %26
w: Män- ner|Trug _ _ und|List, vor|Schmerz mein|Herz ge-|bro- * * chen|ist,|wohl irrt das|Wald- horn|
 (=d3 Pd^c) =d | ^c2 z2 z c | (^c2 =c2) z B | (B2 A3) G | ^F3 F F F | !fermata!^F2 z2 z2 || %32
w: her _ _ und|hin, o|flieh', * o|flieh'! * du|weisst nicht, wer ich|bin.|
[K:E] z2 z!f![Q:1/4=136] E F3/2 G/ | (G2 F2) z c | (c3 BE) G | (G2 F2) B,2 | E3 E F3/2 G/ | %37
w: So reich ge-|schmückt * ist|Ross _ _ und|Weib, * so|wun- der- schön, so|
 G3/2 F/ F2 z c | (c3 BE) G |"^ritard." (!fermata!G2 !fermata!F2) z!f! F | %40
w: wun- der- schön der|jun- * * ge|leib; * jetzt|
[Q:1/4=136]"^Im Tempo." =G G!<(! G2!<)! A2 | B3/2 =c/ =d3!f! d | %42
w: kenn' ich dich, Gott|steh' mir bei! du|
 =d3/2[Q:1/4=80] =G/"^ritard." G G (3(AG) A |[Q:1/4=136]"^Im Tempo." !fermata!B4 z2[Q:1/4=136] | %44
w: bist die He- xe Lo- * re-|ley!|
 z6 | z2 z2 z!p! B | B4 B2 | c4 z c |!<(! (d3 Pdc)!<)!!ff! d | e2 z!f! B B B | B4!f!!<(! B2 | %51
w: |Du|kennst mich|wohl, du|kennst _ _ mich|wohl, von ho- hem|Stein schaut|
 c4 c2 | d2 d2{ed} c3/2 d/!<)! |!ff! e4 z!mf! e | g4 g2 | ^^f4 z d | (^f4{g^f} ^e) f | ^e4 z2 | %58
w: still mein|Schloss tief in den|Rhein; es|ist schon|spät, es|ist _ schon|kalt,|
 z2 z2!f! =e2 | !^!e3/2 G/ G G F F | ^E z"^ritard."[Q:1/4=100] !^!B3 B | B2 !^!B3 B | %62
w: kommst|nim- mer- mehr aus die- sem|Wald, nim- mer-|mehr, nim- mer-|
 B3/2 =E/ G2 F2 | !fermata!E6 |[Q:1/4=120] z6 | z6 | z6 | z6 | z6 | z6[Q:1/4=60] | z6 | %71
w: mehr aus die- sem|Wald.||||||||
 !fermata!z6 |] %72
w: |
V:2
 x6 | x6 | x6 | x6 | x6 | x6 | x6 | x6 | x6 | x6 | x6 | x6 | x6 | x6 ||[K:C] x6 | x6 | x6 | x6 | %18
 x6 | x6 | x6 | x6 | x6 | x6 | x6 | x6 | x6 | x6 | x6 | x6 | x6 | x6 ||[K:E] x6 | x6 | x6 | x6 | %36
 x6 | x6 | x6 | x6 | x6 | x6 | x6 | x6 | x6 | x6 | x6 | x6 | x6 | x6 | x6 | x6 | x6 | x6 | e4 e2 | %55
 d4 x d | (=d4{^ed} c) d | c4 x2 | x6 | x6 | x6 | x6 | x6 | x6 | x6 | x6 | x6 | x6 | x6 | x6 | x6 | %71
 x6 |] %72
V:3
 z2 ([G,E][B,F][EG])[FA] | ([EG]2 [DF]!<(![A,C][DF]>)[Ac] | [Ac]2!<)!!>(! ([GB][EG][G,E])[EG] | %3
 ([EG]2!>)! [DF][A,C][DF]>)[A,C] | [A,C]2 ([G,B,][G,E][B,F])[EG] | ([EG]2 [DF][A,C][DF]>)!<(![Ac] | %6
 [Ac]2 ([GB]!<)!!f![EG]!mf![G,E])[EG] | ([EG]2 [DF][A,C][DF])[A,C] | %8
 z [G,EG]!mf!!<(![G,EG][G,EG][G,EG][G,EG] | z [^^C^EG^A][CEGA][CEGA] z [CEGA] | %10
 z [DF^A][DFA][DFA] z [DFG^B] | z [=EGc][EGc][EGc] z!ff! [EF^A]!<)! | %12
 z [DFB][DFB][DFB] z!f! [DFB] | [EGB]>[B,EG] [B,E] z [A,DF] z || %14
[K:C][I:staff +1] (E,G,[I:staff -1]CE) z E |[I:staff +1] (E,G,[I:staff -1]CE) z E | %16
[I:staff +1] (E,G,[I:staff -1]CE) z E |!p!!<(![I:staff +1] (F,A,[I:staff -1]CF) z F | %18
[I:staff +1] (G,B,[I:staff -1]DG) z!mf! G!<)! |[I:staff +1] (E,G,[I:staff -1]CE) z E | %20
[I:staff +1] (E,G,[I:staff -1]CE) z E |[I:staff +1] ([_E,^F,]A,[I:staff -1]C^F) z F | %22
[I:staff +1] ([D,=F,]B,[I:staff -1]DG) z G |!<(![I:staff +1] (=E,G,[I:staff -1]CE) z!<)! E | %24
 z!>(! [G^Ae][GAe][GAe] z!mf! [^FAe]!>)! | z [^FB^d][FBd][FBd][FBd][FBd] | %26
 z!>(! [E^G=d][EGd][EGd] z!p! [EGd]!>)! | z [EA^c][EAc][EAc][EAc][EAc] | %28
!p! z!<(! [EA^c][EA=c][EAc] z!mf! [EB]!<)! | z [EB] z [EA] z [EG] | %30
!mf!!>(! z [CE^F][CEF][CEF][CEF][CEF]!>)! |!p! z [B,^D^F][B,DF]([B,DF][B,E][A,DF] || %32
[K:E] [G,EG]2) [G,E]([G,E][B,F]>[EG]) | ([EG]2 [DF]!<(![A,C][DF]>)[Ac]!<)! | %34
!mf! [Ac]2 ([GB][EG][G,E])!mf!!>(![EG] | ([EG]2 [DF]!>)!!p![A,C][DF]>)[A,C] | %36
 [A,C]2 ([G,B,][G,E][DF]>)[EG] | ([EG]2!p!!<(! [DF][A,C][DF])[Ac] | %38
 [Ac]2!<)!!f! ([GB]!mp![EG][G,E])[EG] |"^ritard."!mp!!<(! ([EG]2 [DF][A,C][DF])!<)! .[A,DF] | %40
"^Im Tempo." [=G,E=G]2 z2 [A,FA] z | [B,=GB] z [GB]>[A=c]!>(! [B=d]2-!>)! | %42
 [Bd]2"^ritard."!mf! ([E=G]2 A2 |"^Im Tempo." B)!>(! [B,B][B,B][B,B][B,B][B,B]!>)! | %44
 (^G,B,E^G) z G | (G,B,EG) z G | (G,B,EG) z G | (A,CEA) z A | (A,DFB) z B | (G,B,EG) z G | %50
 (G,B,EG) z G | (A,CEA) z A | (A,DFB) z B |!mp!!<(! (G,B,EG) z!<)!!f! G | %54
 z!>(! [B=dg][Bdg][Bdg] z!mp! [^A^^cg]!>)! | z [^A^d^^f][Adf][Adf][Adf][Adf] | %56
 z!mp!!>(! [G^B^f][GB^f][GBf] z!p! [GBf]!>)! | z!p!!<(! [Gc^e][Gce][Gce][Gce][Gce]!<)! | %58
!f! [^^Fc=e] z [Fce] z [Fce] z | [GBe] z [B,EG] z [B,D^F] z | [B,=D^E] z"^ritard." [DEB]3 [DEB] | %61
 [^DFB] z !^![B,DFB]3 [B,=E^GB] | [CEB]>[CE] [B,EG]2 [A,DF]2 | [G,E]2!p! ([G,E][B,F][EG][FA]) | %64
 ([EG]2 [DF][A,C][DF]>)[Ac] | [Ac]2 ([GB][EG][G,E])[EG] | ([EG]2 [DF][A,C][DF]>)[A,C] | %67
 [A,C]2 ([G,B,][G,E][B,F][EG]) | ([EG]2 [DF][A,C][DF]>)([Ac]- | %69
 [Ac]2"^ritard." [GB][EG][G,E][B,F] | [EG]6-) | !fermata![EG]6 |] %72
V:4
!mf! z2 B,,4- | B,,2 B,,4- | B,,2!f! B,,4- | B,,2!mf! B,,4- | B,,2 B,,4- | B,,2 B,,4- | %6
 B,,2 B,,4- | B,,2 B,,4- | B,,6 | [^A,,,^A,,]6 | [D,,,D,,]4{G,,,} [G,,,G,,]2 | %11
{C,,} [C,,C,]4{F,,} [F,,F,]2 |!mf! [B,,B,] z{G,=A,B,} !trill(!TA,4{G,A,} | %13
 !>!G,>E, B,, z [B,,,B,,] z ||[K:C]!p! ([C,,G,,]C,E,G,C) z | ([C,,G,,]C,E,G,C) z | %16
 ([C,,G,,]C,E,G,C) z | ([C,,A,,]C,F,A,C) z | ([C,,G,,]D,G,B,D) z | ([C,,G,,]C,E,G,C) z | %20
 ([C,,G,,]C,E,G,C) z | (!>![C,,A,,]C,^F,A,C) z | (!>![C,,G,,]D,F,B,D) z | ([C,,G,,]C,E,G,!f!C) z | %24
[K:treble] (!>!C4 c) z | B,6 | (!>!_B,4 _B) z | A,6 |[K:bass] ([A,,A,]4 [=G,,=G,]2) | %29
 ([D,D]2 [C,C]2 [B,,B,]2) | [A,,A,]4 [A,,,A,,]2 | B,,3 (A,,^G,,^F,, ||[K:E] E,,2) B,,4- | %33
 B,,2 B,,4- | B,,2 B,,4- | B,,2 B,,4- | B,,2 B,,4- | B,,2 B,,4- | B,,2 B,,4- | B,,2 B,,3!f! .B,, | %40
!f! .[E,,B,,]2 z2!f! [=D,,=D,] z |!f! [=G,,=G,] z [G,B,]>[A,=C] [B,=D]2- | ([B,D]2 [E,=G,]2 A,2 | %43
 [B,,F,B,]) z z2 z2 |!p! ([E,,B,,]E,^G,B,E) z | ([E,,B,,]E,G,B,E) z | ([E,,B,,]E,G,B,E) z | %47
 ([E,,C,]E,A,CE) z | ([E,,B,,]F,A,DF) z | ([E,,B,,]E,G,B,E) z | ([E,,B,,]E,G,B,E) z | %51
 ([E,,B,,]E,A,CE) z | ([E,,B,,]F,A,DF) z | ([E,,B,,]E,G,B,E) z |[K:treble] (!>!E4 e) z | ^D6 | %56
 (=D4 =d) z | C6 |[K:bass] !>![^A,,E,C] z !>![A,,E,C] z !>![A,,E,C] z | %59
 [B,,E,B,] z!mf!!<(! [B,,,B,,] z [=A,,,=A,,] z | [G,,,G,,]!<)!!f! z!mf! [G,B,]3 [=G,B,] | %61
 [F,A,B,] z!f! [A,,,A,,]3 [^G,,,^G,,] | [F,,,F,,]>!mf![A,,,A,,] [B,,,B,,]2 [B,,,B,,]2 | %63
 E,,4 B,,2- | B,,4 B,,2- | B,,4 B,,2- | B,,4 B,,2- | B,,4 B,,2- | B,,4 B,,2- | B,,4 (C2- | C2 B,4 | %71
 !fermata![E,G,B,]6) |] %72
V:5
 E,,6 | B,,,6 | E,,6 | B,,,6 | E,,6 | B,,,6 | E,,6 | B,,,6 | E,,6 | x6 | x6 | x6 | x6 | B,,2 x4 || %14
[K:C] x6 | x6 | x6 | x6 | x6 | x6 | x6 | x6 | x6 | x6 |[K:treble] x6 | x6 | x6 | x6 |[K:bass] x6 | %29
 x6 | x6 | B,,,6 ||[K:E] E,,6 | B,,,6 | E,,6 | B,,,6 | E,,6 | B,,,6 | E,,6 | B,,,4 z .B,,, | x6 | %41
 x6 | x4 [=D,F,][=C,E,] | x6 | x6 | x6 | x6 | x6 | x6 | x6 | x6 | x6 | x6 | x6 |[K:treble] x6 | %55
 x6 | x6 | x6 |[K:bass] x6 | x6 | x6 | x6 | x6 |{/E,,,} E,,,4 z2 | B,,,6 | E,,6 | B,,,6 | E,,6 | %68
 B,,,6 | E,,6 | x2 B,G,E,-F, | x6 |] %72
V:6
 x6 | x6 | x6 | x6 | x6 | x6 | x6 | x6 | x6 | x6 | x6 | x6 | x6 | x6 ||[K:C] x6 | x6 | x6 | x6 | %18
 x6 | x6 | x6 | x6 | x6 | x6 | x6 | x6 | x6 | x6 | x6 | x6 | x6 | x6 ||[K:E] x6 | x6 | x6 | x6 | %36
 x6 | x6 | x6 | x6 | x6 | x6 | x4 [=DF][=CE] | [B,^D] x5 | x6 | x6 | x6 | x6 | x6 | x6 | x6 | x6 | %52
 x6 | x6 | x6 | x6 | x x3 x2 | x6 | x6 | x x x x x x | x6 | x6 | x6 | x6 | x6 | x6 | x6 | x6 | x6 | %69
 x6 | x6 | x6 |] %72
V:7
 x6 | x6 | x6 | x6 | x6 | x6 | x6 | x6 | x6 | x6 | x6 | x6 | x6 | x6 ||[K:C] x6 | x6 | x6 | x6 | %18
 x6 | x6 | x6 | x6 | x6 | x6 |[K:treble] x6 | x6 | x6 | x6 |[K:bass] x6 | x6 | x6 | x6 ||[K:E] x6 | %33
 x6 | x6 | x6 | x6 | x6 | x6 | x6 | x6 | x6 | x6 | x6 | x6 | x6 | x6 | x6 | x6 | x6 | x6 | x6 | %52
 x6 | x6 |[K:treble] x6 | x6 | x6 | x6 |[K:bass] x6 | x6 | x6 | x6 | x6 | x6 | x6 | x6 | x6 | x6 | %68
 x6 | x6 | x4 E,2 | x6 |] %72

